Flat-Remix-Dark/apps/scalable/emacs.svg

<svg xmlns="http://www.w3.org/2000/svg" xmlns:xlink="http://www.w3.org/1999/xlink" width="384pt" height="384pt" version="1.1" viewBox="0 0 384 384">
 <defs>
  <filter id="alpha" width="100%" height="100%" x="0%" y="0%" filterUnits="objectBoundingBox">
   <feColorMatrix in="SourceGraphic" type="matrix" values="0 0 0 0 1 0 0 0 0 1 0 0 0 0 1 0 0 0 1 0"/>
  </filter>
  <mask id="mask0">
   <g filter="url(#alpha)">
    <rect width="384" height="384" x="0" y="0" style="fill:rgb(0%,0%,0%);fill-opacity:0.2"/>
   </g>
  </mask>
  <clipPath id="clip1">
   <rect width="384" height="384" x="0" y="0"/>
  </clipPath>
  <g id="surface5" clip-path="url(#clip1)">
   <path style="fill:rgb(0%,0%,0%)" d="M 24.304688 192.003906 C 24.234375 194.007812 24 195.976562 24 198.003906 C 24 291.074219 98.925781 366 191.996094 366 C 285.066406 366 359.992188 291.074219 359.992188 198.003906 C 359.992188 195.980469 359.757812 194.011719 359.6875 192.003906 C 356.519531 282.253906 283.03125 354 191.992188 354 C 100.945312 354 27.464844 282.253906 24.296875 192.003906 Z M 24.304688 192.003906"/>
  </g>
  <mask id="mask1">
   <g filter="url(#alpha)">
    <rect width="384" height="384" x="0" y="0" style="fill:rgb(0%,0%,0%);fill-opacity:0.101961"/>
   </g>
  </mask>
  <clipPath id="clip2">
   <rect width="384" height="384" x="0" y="0"/>
  </clipPath>
  <g id="surface8" clip-path="url(#clip2)">
   <path style="fill:rgb(100%,100%,100%)" d="M 192 24.011719 C 98.929688 24.011719 24 98.929688 24 192 C 24 192.679688 24.066406 193.34375 24.105469 194.015625 C 26.214844 102.808594 100.265625 30 192 30 C 283.734375 30 357.785156 102.808594 359.894531 194.015625 C 359.933594 193.34375 360 192.679688 360 192 C 360 98.929688 285.070312 24.011719 192 24.011719 Z M 192 24.011719"/>
  </g>
  <mask id="mask2">
   <g filter="url(#alpha)">
    <rect width="384" height="384" x="0" y="0" style="fill:rgb(0%,0%,0%);fill-opacity:0.2"/>
   </g>
  </mask>
  <clipPath id="clip3">
   <rect width="384" height="384" x="0" y="0"/>
  </clipPath>
  <g id="surface11" clip-path="url(#clip3)">
   <path style="fill:rgb(0%,0%,0%)" d="M 126.441406 293.992188 C 126.441406 293.992188 139.316406 300.050781 156.457031 302.1875 C 163.398438 303.050781 189.804688 306.078125 210.054688 306 C 210.054688 306 234.714844 306.019531 248.328125 304.09375 C 262.570312 302.070312 270.636719 299.488281 275.128906 294.335938 C 275.246094 293.105469 277.296875 289.101562 271.761719 285.238281 C 257.605469 275.363281 239.308594 272.660156 203.765625 264.21875 C 164.460938 254.339844 152.113281 244.875 146.242188 238.027344 C 140.679688 231.164062 147.890625 216.910156 179.5625 209.917969 C 195.597656 206.015625 252 203.992188 252 203.992188 C 234.867188 190.390625 206.015625 167.34375 199.441406 162.164062 C 193.675781 157.621094 184.382812 150.648438 183.382812 144.421875 C 182.039062 138.355469 191.582031 135.4375 196.636719 135.101562 C 212.917969 133.976562 235.152344 138.285156 254.917969 142.214844 C 264.851562 144.191406 266.597656 143.898438 266.597656 143.898438 C 280.746094 144.574219 294.5625 134.761719 294 119.152344 C 293.886719 103.320312 275.246094 90.625 257.722656 90.070312 C 240 89.992188 198 89.992188 198 89.992188 C 245.390625 99.761719 255.703125 104.691406 258.175781 110.394531 C 259.636719 113.765625 255.738281 117.113281 242.683594 116.460938 C 228.464844 115.746094 199.328125 112.304688 199.328125 112.304688 C 171.597656 108.039062 154.675781 103.996094 146.253906 115 C 140.75 122.191406 147.039062 130.945312 149.511719 136.109375 C 160.515625 155.3125 177.144531 168.488281 189.21875 177.773438 C 193.765625 181.265625 207.636719 189.003906 207.636719 189.003906 C 164.515625 177.210938 127.753906 183.835938 105.96875 195.289062 C 80.925781 210.113281 85.210938 235.128906 124.945312 258.511719 C 148.417969 272.324219 162.5 278.960938 200.925781 283.679688 C 223.386719 287.261719 227.9375 288.726562 227.765625 290.59375 C 227.523438 293.226562 199.980469 294.226562 192.738281 294.722656 C 174.316406 295.996094 126.671875 293.992188 126.4375 293.992188 Z M 126.441406 293.992188"/>
  </g>
 </defs>
 <g>
  <use mask="url(#mask0)" xlink:href="#surface5"/>
  <path style="fill:rgb(55.686275%,26.666667%,67.843137%)" d="M 360 192.007812 C 360 99.226562 284.785156 24.011719 192.007812 24.011719 C 99.226562 24.011719 24.011719 99.226562 24.011719 192.007812 C 24.011719 284.785156 99.226562 360 192.007812 360 C 284.785156 360 360 284.785156 360 192.007812 Z M 360 192.007812"/>
  <use mask="url(#mask1)" xlink:href="#surface8"/>
  <use mask="url(#mask2)" xlink:href="#surface11"/>
  <path style="fill:rgb(100%,100%,100%)" d="M 126.441406 288 C 126.441406 288 139.316406 294.058594 156.457031 296.195312 C 163.398438 297.058594 189.804688 300.085938 210.054688 300.003906 C 210.054688 300.003906 234.714844 300.027344 248.328125 298.101562 C 262.570312 296.078125 270.636719 293.496094 275.128906 288.339844 C 275.246094 287.113281 277.296875 283.109375 271.761719 279.246094 C 257.605469 269.371094 239.308594 266.667969 203.765625 258.226562 C 164.460938 248.34375 152.113281 238.882812 146.242188 232.035156 C 140.679688 225.171875 147.890625 210.917969 179.5625 203.925781 C 195.597656 200.023438 252 198 252 198 C 234.867188 184.398438 206.015625 161.351562 199.441406 156.171875 C 193.675781 151.628906 184.382812 144.65625 183.382812 138.429688 C 182.039062 132.363281 191.582031 129.445312 196.636719 129.109375 C 212.917969 127.984375 235.152344 132.292969 254.917969 136.222656 C 264.851562 138.199219 266.597656 137.90625 266.597656 137.90625 C 280.746094 138.578125 294.5625 128.769531 294 113.160156 C 293.886719 97.328125 275.246094 84.632812 257.722656 84.078125 C 240 84 198 84 198 84 C 245.390625 93.769531 255.703125 98.695312 258.175781 104.402344 C 259.636719 107.773438 255.738281 111.121094 242.683594 110.46875 C 228.464844 109.753906 199.328125 106.3125 199.328125 106.3125 C 171.597656 102.046875 154.675781 98.003906 146.253906 109.007812 C 140.75 116.195312 147.039062 124.953125 149.511719 130.117188 C 160.515625 149.320312 177.144531 162.496094 189.21875 171.78125 C 193.765625 175.273438 207.636719 183.007812 207.636719 183.007812 C 164.515625 171.21875 127.753906 177.84375 105.96875 189.296875 C 80.925781 204.121094 85.210938 229.132812 124.945312 252.519531 C 148.417969 266.332031 162.5 272.96875 200.925781 277.6875 C 223.386719 281.269531 227.9375 282.734375 227.765625 284.601562 C 227.523438 287.234375 199.980469 288.230469 192.738281 288.730469 C 174.316406 290.003906 126.671875 288 126.4375 288 Z M 126.441406 288"/>
 </g>
</svg>

<svg xmlns="http://www.w3.org/2000/svg" xmlns:xlink="http://www.w3.org/1999/xlink" width="384pt" height="384pt" version="1.1" viewBox="0 0 384 384">
 <defs>
  <linearGradient id="linearGradient937">
   <stop style="stop-color:#8c42ab" offset="0"/>
   <stop style="stop-color:#c21e59" offset="1"/>
  </linearGradient>
  <linearGradient id="linearGradient927">
   <stop offset="0" style="stop-color:#8c42ab"/>
   <stop offset="1" style="stop-color:#000000"/>
  </linearGradient>
  <filter id="alpha" width="100%" height="100%" x="0%" y="0%" filterUnits="objectBoundingBox">
   <feColorMatrix in="SourceGraphic" type="matrix" values="0 0 0 0 1 0 0 0 0 1 0 0 0 0 1 0 0 0 1 0"/>
  </filter>
  <mask id="mask0">
   <g filter="url(#alpha)">
    <rect style="fill:rgb(0%,0%,0%);fill-opacity:0.2" width="384" height="384" x="0" y="0"/>
   </g>
  </mask>
  <clipPath id="clip1">
   <rect width="384" height="384" x="0" y="0"/>
  </clipPath>
  <g id="surface5" clip-path="url(#clip1)">
   <path d="M 24.304688 192.003906 C 24.234375 194.007812 24 195.976562 24 198.003906 C 24 291.074219 98.925781 366 191.996094 366 C 285.066406 366 359.992188 291.074219 359.992188 198.003906 C 359.992188 195.980469 359.757812 194.011719 359.6875 192.003906 C 356.519531 282.253906 283.03125 354 191.992188 354 C 100.945312 354 27.464844 282.253906 24.296875 192.003906 Z M 24.304688 192.003906" style="fill:rgb(0%,0%,0%)"/>
  </g>
  <mask id="mask1">
   <g filter="url(#alpha)">
    <rect style="fill:rgb(0%,0%,0%);fill-opacity:0.101961" width="384" height="384" x="0" y="0"/>
   </g>
  </mask>
  <clipPath id="clip2">
   <rect width="384" height="384" x="0" y="0"/>
  </clipPath>
  <g id="surface8" clip-path="url(#clip2)">
   <path d="M 192 24.011719 C 98.929688 24.011719 24 98.929688 24 192 C 24 192.679688 24.066406 193.34375 24.105469 194.015625 C 26.214844 102.808594 100.265625 30 192 30 C 283.734375 30 357.785156 102.808594 359.894531 194.015625 C 359.933594 193.34375 360 192.679688 360 192 C 360 98.929688 285.070312 24.011719 192 24.011719 Z M 192 24.011719" style="fill:rgb(100%,100%,100%)"/>
  </g>
  <linearGradient id="linearGradient931" x1="239.817" x2="-85.818" y1="193.455" y2="595.636" gradientUnits="userSpaceOnUse" xlink:href="#linearGradient937"/>
  <linearGradient id="linearGradient956" x1="303.273" x2="66.909" y1="64.727" y2="325.091" gradientUnits="userSpaceOnUse" xlink:href="#linearGradient927"/>
  <linearGradient id="linearGradient958" x1="303.273" x2="66.909" y1="64.727" y2="325.091" gradientUnits="userSpaceOnUse" xlink:href="#linearGradient927"/>
 </defs>
 <use style="fill:url(#linearGradient956)" width="100%" height="100%" x="0" y="0" mask="url(#mask0)" xlink:href="#surface5"/>
 <path style="fill:url(#linearGradient931)" d="M 360,192.00781 C 360,99.226562 284.78516,24.011719 192.00781,24.011719 99.226562,24.011719 24.011719,99.226562 24.011719,192.00781 24.011719,284.78516 99.226562,360 192.00781,360 284.78516,360 360,284.78516 360,192.00781 Z m 0,0"/>
 <use style="fill:url(#linearGradient958)" width="100%" height="100%" x="0" y="0" mask="url(#mask1)" xlink:href="#surface8"/>
 <path d="m 126.44141,295.49997 c 0,0 12.875,6.05859 30.01562,8.19531 6.94141,0.86328 33.34765,3.89063 53.59765,3.80861 0,0 24.66015,0.0234 38.27343,-1.90235 14.24219,-2.02344 22.3086,-4.60548 26.80079,-9.76173 0.11718,-1.22655 2.16796,-5.23047 -3.36719,-9.09375 -14.15625,-9.87499 -32.45313,-12.57811 -67.9961,-21.01953 -39.30467,-9.88281 -51.65233,-19.34374 -57.52342,-26.19139 -5.5625,-6.86329 1.64843,-21.11719 33.32031,-28.10938 16.03515,-3.90234 72.43749,-5.92578 72.43749,-5.92578 -17.13281,-13.60157 -45.98438,-36.64844 -52.55859,-41.82813 -5.76563,-4.54296 -15.05859,-11.51562 -16.0586,-17.74218 -1.34374,-6.06641 8.19923,-8.98438 13.25391,-9.32032 16.28125,-1.12499 38.51562,3.1836 58.28125,7.11329 9.93359,1.97656 11.67969,1.68359 11.67969,1.68359 14.14843,0.67187 27.96484,-9.13672 27.40234,-24.74609 -0.11328,-15.83203 -18.75391,-28.527337 -36.27734,-29.082027 -17.72266,-0.0781 -59.72266,-0.0781 -59.72266,-0.0781 47.39062,9.769527 57.70312,14.695317 60.17578,20.402337 1.46094,3.3711 -2.4375,6.71875 -15.49219,6.06641 -14.21875,-0.71484 -43.35546,-4.15625 -43.35546,-4.15625 -27.73047,-4.26562 -44.65234,-8.30859 -53.07421,2.69531 -5.50391,7.1875 0.78515,15.94532 3.25781,21.10938 11.0039,19.20312 27.63281,32.3789 39.70703,41.66406 4.54686,3.49219 18.41796,11.22656 18.41796,11.22656 -43.12109,-11.78906 -79.8828,-5.16406 -101.66796,6.28905 -25.042965,14.82423 -20.757805,39.83595 18.97656,63.22266 23.47266,13.81251 37.55469,20.44923 75.98046,25.16797 22.46094,3.58203 27.01172,5.04687 26.83984,6.91407 -0.24217,2.6328 -27.78515,3.62891 -35.02734,4.1289 C 174.3164,297.50391 126.67188,295.5 126.4375,295.5 Z m 0,0" style="opacity:0.5"/>
 <path style="fill:#ffffff" d="m 126.44141,288 c 0,0 12.875,6.05859 30.01562,8.19531 6.94141,0.86328 33.34766,3.89063 53.59766,3.8086 0,0 24.66015,0.0234 38.27343,-1.90235 14.24219,-2.02344 22.3086,-4.60547 26.80079,-9.76172 0.11718,-1.22656 2.16796,-5.23047 -3.36719,-9.09375 -14.15625,-9.875 -32.45313,-12.57812 -67.9961,-21.01953 -39.30468,-9.88281 -51.65234,-19.34375 -57.52343,-26.1914 -5.5625,-6.86329 1.64843,-21.11719 33.32031,-28.10938 C 195.59766,200.02344 252,198 252,198 c -17.13281,-13.60156 -45.98438,-36.64844 -52.55859,-41.82813 -5.76563,-4.54296 -15.0586,-11.51562 -16.0586,-17.74218 -1.34375,-6.06641 8.19922,-8.98438 13.25391,-9.32032 16.28125,-1.12499 38.51562,3.1836 58.28125,7.11329 9.93359,1.97656 11.67969,1.68359 11.67969,1.68359 C 280.74609,138.57812 294.5625,128.76953 294,113.16016 293.88672,97.328125 275.24609,84.632812 257.72266,84.078125 240,84 198,84 198,84 c 47.39062,9.769531 57.70312,14.695312 60.17578,20.40234 1.46094,3.3711 -2.4375,6.71875 -15.49219,6.06641 -14.21875,-0.71484 -43.35547,-4.15625 -43.35547,-4.15625 -27.73046,-4.26562 -44.65234,-8.308594 -53.07421,2.69531 -5.50391,7.1875 0.78515,15.94532 3.25781,21.10938 11.0039,19.20312 27.63281,32.3789 39.70703,41.66406 4.54687,3.49219 18.41797,11.22656 18.41797,11.22656 -43.1211,-11.78906 -79.88281,-5.16406 -101.66797,6.28906 -25.042969,14.82422 -20.757812,39.83594 18.97656,63.22266 23.47266,13.8125 37.55469,20.44922 75.98047,25.16797 22.46094,3.58203 27.01172,5.04687 26.83984,6.91406 -0.24218,2.63281 -27.78515,3.62891 -35.02734,4.12891 C 174.31641,290.00391 126.67188,288 126.4375,288 Z m 0,0"/>
</svg>
